assets/offering/familjeskyddet.svg

<svg width="56" height="56" viewBox="0 0 56 56" fill="none" xmlns="http://www.w3.org/2000/svg">
<mask id="mask0" mask-type="alpha" maskUnits="userSpaceOnUse" x="0" y="0" width="56" height="56">
<path fill-rule="evenodd" clip-rule="evenodd" d="M0 0H55.9997V55.9996H0V0Z" fill="white"/>
</mask>
<g mask="url(#mask0)">
<path fill-rule="evenodd" clip-rule="evenodd" d="M56 27.9996C56 43.4636 43.464 55.9996 28 55.9996C12.536 55.9996 0 43.4636 0 27.9996C0 12.5356 12.536 -0.000396729 28 -0.000396729C43.464 -0.000396729 56 12.5356 56 27.9996Z" fill="#651EFF"/>
</g>
<path fill-rule="evenodd" clip-rule="evenodd" d="M37.5429 29.9733L36.8359 29.2663L44.4429 21.6593L45.1499 22.3663L37.5429 29.9733Z" fill="white"/>
<path fill-rule="evenodd" clip-rule="evenodd" d="M33.0974 19.0631C31.4714 19.0631 30.1484 20.3861 30.1484 22.0121C30.1484 23.6381 31.4714 24.9601 33.0974 24.9601C34.7234 24.9601 36.0454 23.6381 36.0454 22.0121C36.0454 20.3861 34.7234 19.0631 33.0974 19.0631ZM33.0974 25.9601C30.9194 25.9601 29.1484 24.1891 29.1484 22.0121C29.1484 19.8341 30.9194 18.0631 33.0974 18.0631C35.2744 18.0631 37.0454 19.8341 37.0454 22.0121C37.0454 24.1891 35.2744 25.9601 33.0974 25.9601Z" fill="white"/>
<path fill-rule="evenodd" clip-rule="evenodd" d="M38.697 39.0973H37.697V32.6593C37.697 30.1223 35.634 28.0603 33.098 28.0603C30.562 28.0603 28.5 30.1223 28.5 32.6593V38.9573H27.5V32.6593C27.5 29.5723 30.011 27.0603 33.098 27.0603C36.185 27.0603 38.697 29.5723 38.697 32.6593V39.0973Z" fill="white"/>
<path fill-rule="evenodd" clip-rule="evenodd" d="M18.4606 26.2155L10.8516 18.6065L11.5586 17.8995L19.1676 25.5085L18.4606 26.2155Z" fill="white"/>
<path fill-rule="evenodd" clip-rule="evenodd" d="M22.9021 15.3033C21.2761 15.3033 19.9531 16.6263 19.9531 18.2523C19.9531 19.8783 21.2761 21.2013 22.9021 21.2013C24.5281 21.2013 25.8511 19.8783 25.8511 18.2523C25.8511 16.6263 24.5281 15.3033 22.9021 15.3033ZM22.9021 22.2013C20.7241 22.2013 18.9531 20.4303 18.9531 18.2523C18.9531 16.0743 20.7241 14.3033 22.9021 14.3033C25.0801 14.3033 26.8511 16.0743 26.8511 18.2523C26.8511 20.4303 25.0801 22.2013 22.9021 22.2013Z" fill="white"/>
<path fill-rule="evenodd" clip-rule="evenodd" d="M28.5017 41.1959H27.5017V28.8999C27.5017 26.3639 25.4387 24.3009 22.9027 24.3009C20.3667 24.3009 18.3047 26.3639 18.3047 28.8999V31.1489H17.3047V28.8999C17.3047 25.8129 19.8157 23.3009 22.9027 23.3009C25.9897 23.3009 28.5017 25.8129 28.5017 28.8999V41.1959Z" fill="white"/>
<path fill-rule="evenodd" clip-rule="evenodd" d="M17.8162 31.6491C16.1902 31.6491 14.8672 32.9721 14.8672 34.5981C14.8672 36.2241 16.1902 37.5471 17.8162 37.5471C19.4422 37.5471 20.7652 36.2241 20.7652 34.5981C20.7652 32.9721 19.4422 31.6491 17.8162 31.6491ZM17.8162 38.5471C15.6382 38.5471 13.8672 36.7761 13.8672 34.5981C13.8672 32.4201 15.6382 30.6491 17.8162 30.6491C19.9942 30.6491 21.7652 32.4201 21.7652 34.5981C21.7652 36.7761 19.9942 38.5471 17.8162 38.5471Z" fill="white"/>
</svg>

<svg width="56" height="56" viewBox="0 0 56 56" fill="none" xmlns="http://www.w3.org/2000/svg"><mask id="a" maskUnits="userSpaceOnUse" x="0" y="0" width="56" height="56"><path fill-rule="evenodd" clip-rule="evenodd" d="M0 0h56v56H0V0z" fill="#fff"/></mask><g mask="url(#a)"><path fill-rule="evenodd" clip-rule="evenodd" d="M56 28c0 15.464-12.536 28-28 28S0 43.464 0 28 12.536 0 28 0s28 12.536 28 28z" fill="#651EFF"/></g><path fill-rule="evenodd" clip-rule="evenodd" d="M37.543 29.973l-.707-.707 7.607-7.607.707.707-7.607 7.607zM33.097 19.063a2.952 2.952 0 00-2.949 2.95 2.952 2.952 0 002.95 2.947 2.95 2.95 0 002.947-2.948 2.952 2.952 0 00-2.948-2.949zm0 6.897a3.953 3.953 0 01-3.949-3.948 3.953 3.953 0 013.95-3.949 3.953 3.953 0 013.947 3.95 3.952 3.952 0 01-3.948 3.947z" fill="#fff"/><path fill-rule="evenodd" clip-rule="evenodd" d="M38.697 39.097h-1V32.66a4.603 4.603 0 00-4.599-4.599 4.603 4.603 0 00-4.598 4.6v6.297h-1V32.66a5.605 5.605 0 015.598-5.599 5.606 5.606 0 015.599 5.6v6.437zM18.46 26.215l-7.608-7.608.707-.707 7.609 7.609-.707.706zM22.902 15.303a2.952 2.952 0 00-2.949 2.95 2.952 2.952 0 002.95 2.948 2.952 2.952 0 002.948-2.949 2.952 2.952 0 00-2.949-2.949zm0 6.898a3.953 3.953 0 01-3.949-3.949 3.953 3.953 0 013.95-3.949 3.953 3.953 0 013.948 3.95 3.953 3.953 0 01-3.949 3.948z" fill="#fff"/><path fill-rule="evenodd" clip-rule="evenodd" d="M28.502 41.196h-1V28.9a4.604 4.604 0 00-4.6-4.6 4.603 4.603 0 00-4.597 4.6v2.249h-1v-2.25a5.605 5.605 0 015.598-5.598 5.606 5.606 0 015.599 5.599v12.296z" fill="#fff"/><path fill-rule="evenodd" clip-rule="evenodd" d="M17.816 31.65a2.952 2.952 0 00-2.949 2.948 2.952 2.952 0 002.95 2.95 2.952 2.952 0 002.948-2.95 2.952 2.952 0 00-2.949-2.949zm0 6.897a3.953 3.953 0 01-3.949-3.949 3.953 3.953 0 013.95-3.949 3.953 3.953 0 013.948 3.95 3.953 3.953 0 01-3.949 3.948z" fill="#fff"/></svg>
